X:1
T:Báidín Fheilimí
T:Báidín Fheidhlimidh
T: Chorus Báidín bídeach, báidín beosach, Báidín bóidheach, báidín Fheilimí Báidín díreach, báidín deontach Báidín Fheilimí is Feilimí ann. Báidín Fheilimí d'imigh go Toraí, Báidín Fheilimí is Feilimí ann. Báidín Fheilimí d'imigh go Toraí, Báidín Fheilimí is Feilimí ann.
T:        Chorus Báidín Fheilimí briseadh i dToraí, Báidín Fheilimí is Feilimí ann. Báidín Fheilimí briseadh i dToraí, Báidín Fheilimí is Feilimí ann. Chorus Báidín Fheilimí briseadh i dToraí, Iasc ar bord agus Feilimí ann. Báidín Fheilimí briseadh i dToraí, Éisc ar bord agus Feilimí ann. »
T:« Báidín Fheilimí d'imigh go Gabhla, Báidín Fheilimí is Feilimí ann. Báidín Fheilimí d'imigh go Gabhla, Báidín Fheilimí is Feilimí ann.
T:Pubblico dominio
Z:Pubblico dominio
L:1/8
Q:1/4=140
M:12/8
K:D
V:1 treble nm="Irish Flute" snm="Ir. Fl."
V:1
|: A2 D F>ED ABc d2 B | A2 D F>ED GEE EFG | A2 D F>ED ABc d2 c |1 d2 B ABG FDD D2 B :|2 %4
 d2 B ABG FDD D2 B |: d2 e f2 d g2 e fed | B2 c d2 B ABG FED | d2 e f2 d g2 e fed |1 %8
 B2 d ABG FDD D2 B :|2 B2 d ABG FDD D2 B || %10

